src/assets/wed_icon/icon_28/EditDate_default.svg

<svg width="28" height="28" viewBox="0 0 28 28" fill="none" xmlns="http://www.w3.org/2000/svg">
<path fill-rule="evenodd" clip-rule="evenodd" d="M3 10.25C3 7.07436 5.57436 4.5 8.75 4.5H19.25C22.4256 4.5 25 7.07436 25 10.25V12.8013C25 13.2155 24.6642 13.5513 24.25 13.5513C23.8358 13.5513 23.5 13.2155 23.5 12.8013V10.25C23.5 7.90279 21.5972 6 19.25 6H8.75C6.40279 6 4.5 7.90279 4.5 10.25V19.25C4.5 21.5972 6.40279 23.5 8.75 23.5H12.5C12.9142 23.5 13.25 23.8358 13.25 24.25C13.25 24.6642 12.9142 25 12.5 25H8.75C5.57436 25 3 22.4256 3 19.25V10.25Z" fill="#A9AABC"/>
<path fill-rule="evenodd" clip-rule="evenodd" d="M24 10.75L4 10.75L4 9.25L24 9.25L24 10.75Z" fill="#A9AABC"/>
<path fill-rule="evenodd" clip-rule="evenodd" d="M8 3C8.41421 3 8.75 3.33579 8.75 3.75L8.75 5.75L7.25 5.75L7.25 3.75C7.25 3.33579 7.58579 3 8 3Z" fill="#A9AABC"/>
<path fill-rule="evenodd" clip-rule="evenodd" d="M19 3C19.4142 3 19.75 3.33579 19.75 3.75L19.75 5.75L18.25 5.75L18.25 3.75C18.25 3.33579 18.5858 3 19 3Z" fill="#A9AABC"/>
<path fill-rule="evenodd" clip-rule="evenodd" d="M23.2803 17.3909C22.9874 17.098 22.5126 17.098 22.2197 17.3909L17.4421 22.1685L17.1803 23.1865C17.1329 23.3708 17.3005 23.5383 17.4847 23.4909L18.5028 23.2291L23.2803 18.4516C23.5732 18.1587 23.5732 17.6838 23.2803 17.3909ZM21.159 16.3302C22.0377 15.4516 23.4623 15.4516 24.341 16.3302C25.2197 17.2089 25.2197 18.6335 24.341 19.5122L19.4348 24.4185C19.3292 24.5241 19.1972 24.5994 19.0525 24.6366L17.8583 24.9437C16.5687 25.2753 15.396 24.1025 15.7276 22.813L16.0347 21.6187C16.0719 21.4741 16.1472 21.3421 16.2528 21.2365L21.159 16.3302Z" fill="#A9AABC"/>
</svg>

<svg xmlns="http://www.w3.org/2000/svg" width="28" height="28" fill="none"><path fill="#A9AABC" fill-rule="evenodd" d="M3 10.25A5.75 5.75 0 0 1 8.75 4.5h10.5A5.75 5.75 0 0 1 25 10.25v2.551a.75.75 0 0 1-1.5 0V10.25A4.25 4.25 0 0 0 19.25 6H8.75a4.25 4.25 0 0 0-4.25 4.25v9a4.25 4.25 0 0 0 4.25 4.25h3.75a.75.75 0 0 1 0 1.5H8.75A5.75 5.75 0 0 1 3 19.25z" clip-rule="evenodd"/><path fill="#A9AABC" fill-rule="evenodd" d="M24 10.75H4v-1.5h20zM8 3a.75.75 0 0 1 .75.75v2h-1.5v-2A.75.75 0 0 1 8 3M19 3a.75.75 0 0 1 .75.75v2h-1.5v-2A.75.75 0 0 1 19 3M23.28 17.39a.75.75 0 0 0-1.06 0l-4.778 4.779-.262 1.017a.25.25 0 0 0 .305.305l1.018-.262 4.777-4.777a.75.75 0 0 0 0-1.061m-2.121-1.06a2.25 2.25 0 0 1 3.182 3.182l-4.906 4.907a.83.83 0 0 1-.383.218l-1.194.307a1.75 1.75 0 0 1-2.13-2.131l.307-1.194a.84.84 0 0 1 .218-.383z" clip-rule="evenodd"/></svg>
